X: 108
T:Muiñeira de Farruco
M:6/8
L:1/8
Q:200
C:Trad.
S:Rep: "Brisas da Cruña"
R:Muiñeira
K:C
CDC | BcB ABA | GAG CDC | BcB ABA | G6- | G6- 
|G3 CDC |BcB ABA | GAG CDC | BcB ABA | G3- GAG | FGF EFE | D2C FGF |
EFE DED |1 C6- | C2 "F."G :|2 |: C3 "F."GCD | _"~"E2D "F."GDE | "~"F2 _E
- _ECD | _ECE DC"F."G|
"~"C2B, "F."GB,C | D"F."cD "F."cD_E | "~"F2 _E- ECD | _ECE DB,D :| C6- C
2"F."G CEC| "tr."F2D B,DB, |
C6- |: C2 "F."G CEC | "tr."F2D B,DB, | C2 "F."G CEC | "tr."F2 D B,DB, |
"tr."G2E CEC | "tr."F2D B,DB, |1
C2 "F."G CEC | "tr."F2D B,DB, :|2 C6- | C6-|  C2 "F."G

